!!!SOCIAL_FUNCTION: songs of the deer society
!!!SOCIAL_FUNCTION2: Deer Society song
!!!PDT:	1929
!!!LING_GROUP: Caddoan
!!!LANG: Non-Tone
!!!REG: Oklahoma
!!!COM: Anon.
!!!OTL: Spring is Opening
!!!ODT: <1920//
!!!MPN: Mark Evarts
!!!MLC: Pawnee, Oklahoma, United States of America
!! Song was recorded either 1919 or 1920.
!!!AGN: monody
!!!AMT: irregular
!!!RWG: Transcribed pitches, durations, and meters are only approximate.
!! Drum not recorded
**kern
*ICvox
*Imale
*clefF4
*k[b-e-]
*M2/4
*MM104
=1-
4f
4f
=2
4f
4f
=3
4f
4f
*M3/4
=4
8f
8d
8d
8c
4B-
*M2/4
=5
4d
4c
=6
4B-
4B-
=7
4c
4B-
*M3/4
=8
4B-
4B-
4B-
*M2/4
=9
4f
4f
=10
4f
4f
=11
4f
4f
*M3/4
=12
8f
8d
8d
8c
4B-
*M2/4
=13
4d
4c
=14
4B-
4B-
=15
4c
4B-
*M3/4
=16
8B-
8G
8G
8F
4D
*M2/4
=17
4B-
4G
=18
4F
4F
=19
4G
4F
*M3/4
=20
8F
8D
8D
8C
4BB-
*M2/4
=21
4D
4C
=22
4BB-
[4BB-
=23
4BB-]
4BB-
=24
2BB-
=25
2BB-
=26
4B-
4B-
=27
4B-
4B-
=28
4c
4B-
!! added change of meter
*M3/4
=29
8d
8B-
8G
8F
4D
*M2/4
=30
4B-
4G
=31
4F
4F
=32
4G
4F
*M3/4
=33
8F
8D
8D
8C
4BB-
*M2/4
=34
4D
4C
=35
4BB-
[4BB-
=36
4BB-]
4BB-
=37
2BB-
=38
2BB-
==
*-
!!!HAO: [no description]
!!!HTX: [no free translation]
!!!CNT: Pawnee
!!!TXO: Pawnee
!!!OCY: United States
!!!OCL: Frances Densmore
!!!YOR: Frances Densmore, "Pawnee Music"
!!!YOR: Bulletin 93, page 49, No. 22
!!!PPR: Smithsonian Institution, Bureau of American Ethnology
!!!PPR: Government Printing Office
!!!PDT: 1926
!!!PPP: Washington, DC, United States of America
!!!YEC: Electronic Copyright 2000 David Huron
!!!YER: September 2000
!!!YEN: United States of America
!!!ENC: David Huron
!!!RDT: September 3, 2000
!!!EEV: Release 1.0
!!!AIN: vox
